X:1
T:Title
%%score { 1 | 2 }
L:1/8
Q:1/4=100
M:4/4
K:Ab
V:1 treble nm="Grand Piano"
V:2 bass 
V:1
 [CE]>[CE] [CA]>[CA] [Ec]2 [EA]2 | F>F F>[FB] [Fd]4 | G>G B>B d2 B2 | F>E E>[EA] [Ec]4 | %4
w: Will~H.~Ruebush * * * * *||||
 [CE]>[CE] [CA]>[CA] [Ec]2 [EA]2 | F>F F>[FB] [Fd]4 | G>G A>A B2 [Ge]2 | (3ccc c>B [CA]4 | %8
w: ||||
 e>e e>d c2 [ce]2 | (3[Bd][Bd][Bd] [Bd]>[Ac] [GB]4 | [Bd]>[Bd] [Bd]>[Ac] [GB]2 [Bd]2 | %11
w: |||
 (3ccc c>B A4 | [CE]>[CE] [CA]>[CA] [Ec]2 [EA]2 | (3FFF F>[FB] [DFd]4 | G>G A>A B2 [Ge]2 | %15
w: ||||
 (3ccc c>B [CA]4 |] %16
w: |
V:2
 [A,,A,]>[A,,A,] [A,,E,]>[A,,E,] [A,,A,]2 [C,A,]2 | [D,A,D]>[D,A,D] [D,A,D]>[D,A,] [B,,B,]4 | %2
 [E,B,E]>[E,B,E] [E,G,E]>[E,G,E] [E,G,E]2 [E,G,D]2 | [A,D]>[A,C] [E,A,C]>[C,A,] [A,,A,]4 | %4
 [A,,A,]>[A,,A,] [A,,E,]>[A,,E,] [A,,A,]2 [C,A,]2 | [D,A,D]>[D,A,D] [D,A,D]>[D,A,] [B,,B,]4 | %6
 [E,B,D]>[E,B,D] [E,A,C]>[E,A,C] [E,G,D]2 [E,B,]2 | %7
 (3[E,A,E][E,A,E][E,A,E] [E,G,D]>[E,G,D] [A,,A,]4 | %8
 [A,CA]>[A,CA] [A,CA]>[A,B,A] [A,A]2[K:bass] A,2 | (3[E,G,][E,G,][E,G,] [E,B,]>[E,C] [E,D]4 | %10
 [E,G,]>[E,G,] [E,B,]>[D,C] [E,D]2 [E,E]2 | (3[A,EA][A,EA][A,EA] [A,EA]>[A,DE][K:bass] [A,CE]4 | %12
 [A,,A,]>[A,,A,] [A,,E,]>[A,,F,] [A,,A,]2 [C,A,]2 | (3[D,A,D][D,A,D][D,A,D] [D,A,D]>[D,A,] B,,4 | %14
 [E,B,D]>[E,B,D] [E,A,C]>[E,A,C] [E,G,D]2 [E,B,]2 | %15
 (3[E,A,E][E,A,E][E,A,E] [E,G,D]>[E,G,D] [A,,A,]4 |] %16

